past-3.svg

<svg width="146" height="125" viewBox="0 0 146 125" fill="none" xmlns="http://www.w3.org/2000/svg">
<g clip-path="url(#clip0_143_507)">
<path d="M102.09 86.65V90.24C102.09 91.74 102.95 93.1 104.3 93.75L111.77 97.3C114.9 98.79 116.9 101.95 116.9 105.42V118.98C116.9 121.46 118.71 123.67 121.18 123.9C124.01 124.17 126.39 121.95 126.39 119.18V105.42C126.39 101.95 128.39 98.79 131.52 97.3L138.99 93.75C140.34 93.11 141.2 91.74 141.2 90.24V86.65H102.09Z" fill="#D3E2E2" stroke="#B2C1C5" stroke-miterlimit="10" stroke-linecap="round" stroke-linejoin="round"/>
<path d="M100.36 22.37H37.56C34.21 22.37 31.47 19.63 31.47 16.28V6.59C31.47 3.24 34.21 0.5 37.56 0.5H100.36C103.71 0.5 106.45 3.24 106.45 6.59V16.27C106.46 19.63 103.72 22.37 100.36 22.37Z" fill="#FFFEF8" stroke="#B2C1C5" stroke-miterlimit="10" stroke-linecap="round" stroke-linejoin="round"/>
<path d="M106.46 11.4399H110.63V30.4799L68.96 50.0799V56.1699" stroke="#B2C1C5" stroke-miterlimit="10"/>
<path d="M74.22 71.47H74.19L76.05 56.17H61.87L63.73 71.47C62.31 83.48 61.97 95.59 62.72 107.65L63.73 123.92H74.22L75.23 107.65C75.98 95.58 75.64 83.47 74.22 71.47Z" fill="#EAF4F4" stroke="#B2C1C5" stroke-miterlimit="10" stroke-linecap="round" stroke-linejoin="round"/>
<path d="M141.2 68.47H102.09V86.65H141.2V68.47Z" stroke="#B2C1C5" stroke-miterlimit="10"/>
<path d="M144.98 42.5601H98.3199L102.09 68.4701H141.21L144.98 42.5601Z" fill="#FFFEF8" stroke="#B2C1C5" stroke-miterlimit="10" stroke-linecap="round" stroke-linejoin="round"/>
<path d="M121.65 120.95C122.904 120.95 123.92 119.934 123.92 118.68C123.92 117.426 122.904 116.41 121.65 116.41C120.396 116.41 119.38 117.426 119.38 118.68C119.38 119.934 120.396 120.95 121.65 120.95Z" stroke="#B2C1C5" stroke-miterlimit="10"/>
<path d="M104.12 42.5601L105.78 53.3901" stroke="#B2C1C5" stroke-miterlimit="10"/>
<path d="M138.43 42.5601L135.53 59.5401" stroke="#B2C1C5" stroke-miterlimit="10"/>
<path d="M20.11 79.43C30.9403 79.43 39.72 70.6503 39.72 59.82C39.72 48.9897 30.9403 40.21 20.11 40.21C9.2797 40.21 0.5 48.9897 0.5 59.82C0.5 70.6503 9.2797 79.43 20.11 79.43Z" stroke="#B2C1C5" stroke-miterlimit="10"/>
<path d="M20.11 69.42C25.4119 69.42 29.71 65.1219 29.71 59.82C29.71 54.518 25.4119 50.22 20.11 50.22C14.8081 50.22 10.51 54.518 10.51 59.82C10.51 65.1219 14.8081 69.42 20.11 69.42Z" stroke="#B2C1C5" stroke-miterlimit="10"/>
<path d="M0.5 59.8199V88.1399L3.91 85.2999V70.8799" stroke="#B2C1C5" stroke-miterlimit="10"/>
</g>
<defs>
<clipPath id="clip0_143_507">
<rect width="145.48" height="124.42" fill="white"/>
</clipPath>
</defs>
</svg>

<?xml version="1.0" encoding="utf-8"?>
<!-- Generator: Adobe Illustrator 26.0.1, SVG Export Plug-In . SVG Version: 6.00 Build 0)  -->
<svg version="1.1" id="圖層_1" xmlns="http://www.w3.org/2000/svg" xmlns:xlink="http://www.w3.org/1999/xlink" x="0px" y="0px"
	 viewBox="0 0 146 125" style="enable-background:new 0 0 146 125;" xml:space="preserve">
<style type="text/css">
	.st0{clip-path:url(#SVGID_00000083785083597869419570000010127571479026603151_);}
	.st1{fill:#E0E0E0;stroke:#7C7472;stroke-miterlimit:10;}
	.st2{fill:#F9F9F9;stroke:#7C7472;stroke-miterlimit:10;}
	.st3{fill:#B0A99F;stroke:#7C7472;stroke-miterlimit:10;}
	.st4{fill:#D3CCC5;stroke:#7C7472;stroke-miterlimit:10;}
	.st5{fill:none;stroke:#7C7472;stroke-miterlimit:10;}
	.st6{fill:#EFEFEF;stroke:#7C7472;stroke-miterlimit:10;}
	.st7{fill:#E0DDDA;stroke:#7C7472;stroke-miterlimit:10;}
</style>
<g>
	<defs>
		<rect id="SVGID_1_" y="0" width="145.5" height="124.4"/>
	</defs>
	<clipPath id="SVGID_00000149368230372584589350000000881767843600256678_">
		<use xlink:href="#SVGID_1_"  style="overflow:visible;"/>
	</clipPath>
	<g style="clip-path:url(#SVGID_00000149368230372584589350000000881767843600256678_);">
		<path class="st1" d="M0.5,59.8v28.3l3.4-2.8V70.9"/>
		<path class="st2" d="M20.1,79.4c10.8,0,19.6-8.8,19.6-19.6s-8.8-19.6-19.6-19.6S0.5,49,0.5,59.8S9.3,79.4,20.1,79.4z"/>
		<path class="st3" d="M102.1,86.7v3.6c0,1.5,0.9,2.9,2.2,3.5l7.5,3.6c3.1,1.5,5.1,4.6,5.1,8.1V119c0,2.5,1.8,4.7,4.3,4.9
			c2.8,0.3,5.2-2,5.2-4.7v-13.8c0-3.5,2-6.6,5.1-8.1l7.5-3.6c1.3-0.6,2.2-2,2.2-3.5v-3.6H102.1z"/>
		<path class="st4" d="M100.4,22.4H37.6c-3.4,0-6.1-2.7-6.1-6.1V6.6c0-3.4,2.7-6.1,6.1-6.1h62.8c3.3,0,6.1,2.7,6.1,6.1v9.7
			C106.5,19.6,103.7,22.4,100.4,22.4z"/>
		<path class="st5" d="M106.5,11.4h4.2v19L69,50.1v6.1"/>
		<path class="st6" d="M74.2,71.5L74.2,71.5l1.8-15.3H61.9l1.9,15.3c-1.4,12-1.8,24.1-1,36.2l1,16.3h10.5l1-16.3
			C76,95.6,75.6,83.5,74.2,71.5z"/>
		<path class="st7" d="M141.2,68.5h-39.1v18.2h39.1V68.5z"/>
		<path class="st2" d="M145,42.6H98.3l3.8,25.9h39.1L145,42.6z"/>
		<path class="st3" d="M121.7,120.9c1.3,0,2.3-1,2.3-2.3s-1-2.3-2.3-2.3s-2.3,1-2.3,2.3S120.4,120.9,121.7,120.9z"/>
		<path class="st7" d="M104.1,42.6l1.7,10.8"/>
		<path class="st7" d="M138.4,42.6l-2.9,17"/>
		<path class="st6" d="M20.1,69.4c5.3,0,9.6-4.3,9.6-9.6c0-5.3-4.3-9.6-9.6-9.6s-9.6,4.3-9.6,9.6C10.5,65.1,14.8,69.4,20.1,69.4z"/>
	</g>
</g>
</svg>
